; generated by PrusaSlicer 2.3.3+win64 on 2021-10-15 at 03:26:11 UTC

; 

; external perimeters extrusion width = 0.45mm
; perimeters extrusion width = 0.45mm
; infill extrusion width = 0.45mm
; solid infill extrusion width = 0.45mm
; top infill extrusion width = 0.40mm
; first layer extrusion width = 0.42mm

M201 X9000 Y9000 Z500 E10000 ; sets maximum accelerations, mm/sec^2
M203 X500 Y500 Z12 E120 ; sets maximum feedrates, mm/sec
M204 P1500 R1500 T1500 ; sets acceleration (P, T) and retract acceleration (R), mm/sec^2
M205 X10.00 Y10.00 Z0.20 E2.50 ; sets the jerk limits, mm/sec
M205 S0 T0 ; sets the minimum extruding and travel feed rate, mm/sec
M107
M190 S105 ; set bed temperature and wait for it to be reached
M104 S225 ; set temperature
;TYPE:Custom
G28 ; home all axes
G1 Z5 F5000 ; lift nozzle
M109 S225 ; set temperature and wait for it to be reached
G21 ; set units to millimeters
G90 ; use absolute coordinates
M82 ; use absolute distances for extrusion
G92 E0
; Filament gcode
;LAYER_CHANGE
;Z:0.35
;HEIGHT:0.35
G1 Z0.350 F7200.000
G1 E-2.00000 F2400.000
G92 E0
G1 X101.921 Y58.883 F7200.000
G1 E2.00000 F2400.000
;TYPE:Skirt
;WIDTH:0.42
G1 F2100.000
G1 X102.880 Y57.734 E2.07512
G1 X103.971 Y56.861 E2.14527
G1 X105.055 Y56.279 E2.20701
G1 X106.362 Y55.841 E2.27618
G1 X107.849 Y55.657 E2.35137
G1 X192.006 Y55.655 E6.57488
G1 X193.431 Y55.798 E6.64675
G1 X194.630 Y56.149 E6.70942
G1 X195.888 Y56.770 E6.77986
G1 X197.080 Y57.696 E6.85560
G1 X198.018 Y58.797 E6.92822
G1 X198.636 Y59.861 E6.98996
G1 X199.117 Y61.187 E7.06072
G1 X199.333 Y62.619 E7.13341
G1 X199.342 Y137.174 E10.87504
G1 X199.148 Y138.687 E10.95158
G1 X198.682 Y140.037 E11.02326
G1 X198.061 Y141.142 E11.08687
G1 X197.120 Y142.266 E11.16043
G1 X196.029 Y143.139 E11.23058
G1 X194.945 Y143.721 E11.29232
G1 X193.638 Y144.159 E11.36150
G1 X192.151 Y144.343 E11.43668
G1 X107.988 Y144.345 E15.66050
G1 X106.410 Y144.170 E15.74015
G1 X105.026 Y143.709 E15.81337
G1 X103.883 Y143.079 E15.87884
G1 X102.734 Y142.120 E15.95396
G1 X101.861 Y141.029 E16.02411
G1 X101.281 Y139.951 E16.08554
G1 X100.842 Y138.644 E16.15472
G1 X100.658 Y137.170 E16.22928
G1 X100.655 Y62.988 E19.95218
G1 X100.830 Y61.410 E20.03182
G1 X101.291 Y60.026 E20.10505
G1 X101.892 Y58.936 E20.16750
G1 E18.16750 F2400.000
G92 E0
G1 X108.445 Y63.445 F7200.000
G1 E2.00000 F2400.000
;TYPE:Perimeter
G1 F2100.000
G1 X191.555 Y63.445 E6.17098
G1 X191.555 Y136.555 E9.84011
G1 X108.445 Y136.555 E14.01109
G1 X108.445 Y63.505 E17.67721
G1 X108.100 Y63.100 F7200.000
G1 F2100.000
G1 X191.900 Y63.100 E21.88281
G1 X191.900 Y136.900 E25.58655
G1 X108.100 Y136.900 E29.79216
G1 X108.100 Y63.160 E33.49289
G1 X107.793 Y62.881 F7200.000
G1 F2100.000
G1 X107.881 Y62.793 E33.49909
G1 X108.049 Y62.755 E33.50777
G1 X191.951 Y62.755 E37.71842
G1 X192.062 Y62.770 E37.72405
G1 X192.169 Y62.831 E37.73025
G1 X192.230 Y62.938 E37.73645
G1 X192.245 Y63.049 E37.74208
G1 X192.245 Y136.951 E41.45087
G1 X192.230 Y137.062 E41.45650
G1 X192.169 Y137.169 E41.46270
G1 X192.062 Y137.230 E41.46890
G1 X191.951 Y137.245 E41.47453
G1 X108.049 Y137.245 E45.68518
G1 X107.938 Y137.230 E45.69081
G1 X107.831 Y137.169 E45.69701
G1 X107.770 Y137.062 E45.70321
G1 X107.755 Y136.951 E45.70884
G1 X107.755 Y63.049 E49.41763
G1 X107.770 Y62.936 E49.42337
G1 X107.492 Y62.707 F7200.000
;TYPE:External perimeter
G1 F2100.000
G1 X107.585 Y62.585 E49.43105
G1 X107.707 Y62.492 E49.43874
G1 X107.848 Y62.434 E49.44642
G1 X108.027 Y62.410 E49.45547
G1 X191.973 Y62.410 E53.66838
G1 X192.152 Y62.434 E53.67743
G1 X192.293 Y62.492 E53.68511
G1 X192.415 Y62.585 E53.69279
G1 X192.508 Y62.707 E53.70048
G1 X192.566 Y62.848 E53.70816
G1 X192.590 Y63.027 E53.71721
G1 X192.590 Y136.973 E57.42827
G1 X192.566 Y137.152 E57.43731
G1 X192.508 Y137.293 E57.44499
G1 X192.415 Y137.415 E57.45268
G1 X192.293 Y137.508 E57.46036
G1 X192.152 Y137.566 E57.46804
G1 X191.973 Y137.590 E57.47709
G1 X108.027 Y137.590 E61.69001
G1 X107.848 Y137.566 E61.69905
G1 X107.707 Y137.508 E61.70673
G1 X107.585 Y137.415 E61.71442
G1 X107.492 Y137.293 E61.72210
G1 X107.434 Y137.152 E61.72978
G1 X107.410 Y136.973 E61.73883
G1 X107.410 Y63.027 E65.44989
G1 X107.434 Y62.848 E65.45893
G1 X107.469 Y62.762 E65.46360
G1 X107.645 Y62.706 F7200.000
G1 E63.46360 F2400.000
G92 E0
G1 X190.753 Y63.548 F7200.000
G1 E2.00000 F2400.000
;TYPE:Solid infill
;WIDTH:0.420632
G1 F2100.000
G1 X191.297 Y64.091 E2.03863
G1 X191.297 Y64.580 E2.06320
G1 X190.420 Y63.703 E2.12554
G1 X189.931 Y63.703 E2.15011
G1 X191.297 Y65.069 E2.24720
G1 X191.297 Y65.557 E2.27177
G1 X189.443 Y63.703 E2.40360
G1 X188.954 Y63.703 E2.42816
G1 X191.297 Y66.046 E2.59474
G1 X191.297 Y66.535 E2.61931
G1 X188.465 Y63.703 E2.82063
G1 X187.977 Y63.703 E2.84519
G1 X191.297 Y67.023 E3.08126
G1 X191.297 Y67.512 E3.10582
G1 X187.488 Y63.703 E3.37663
G1 X186.999 Y63.703 E3.40120
G1 X191.297 Y68.001 E3.70675
G1 X191.297 Y68.489 E3.73132
G1 X186.511 Y63.703 E4.07161
G1 X186.022 Y63.703 E4.09618
G1 X191.297 Y68.978 E4.47122
G1 X191.297 Y69.467 E4.49579
G1 X185.533 Y63.703 E4.90557
G1 X185.045 Y63.703 E4.93014
G1 X191.297 Y69.955 E5.37467
G1 X191.297 Y70.444 E5.39923
G1 X184.556 Y63.703 E5.87851
G1 X184.068 Y63.703 E5.90307
G1 X191.297 Y70.932 E6.41709
G1 X191.297 Y71.421 E6.44166
G1 X183.579 Y63.703 E6.99042
G1 X183.090 Y63.703 E7.01498
G1 X191.297 Y71.910 E7.59849
G1 X191.297 Y72.398 E7.62306
G1 X182.602 Y63.703 E8.24130
G1 X182.113 Y63.703 E8.26587
G1 X191.297 Y72.887 E8.91886
G1 X191.297 Y73.376 E8.94343
G1 X181.624 Y63.703 E9.63117
G1 X181.136 Y63.703 E9.65573
G1 X191.297 Y73.864 E10.37821
G1 X191.297 Y74.353 E10.40278
G1 X180.647 Y63.703 E11.16001
G1 X180.158 Y63.703 E11.18457
G1 X191.297 Y74.842 E11.97654
G1 X191.297 Y75.330 E12.00111
G1 X179.670 Y63.703 E12.82782
G1 X179.181 Y63.703 E12.85239
G1 X191.297 Y75.819 E13.71385
G1 X191.297 Y76.307 E13.73841
G1 X178.693 Y63.703 E14.63462
G1 X178.204 Y63.703 E14.65918
G1 X191.297 Y76.796 E15.59013
G1 X191.297 Y77.285 E15.61470
G1 X177.715 Y63.703 E16.58038
G1 X177.227 Y63.703 E16.60495
G1 X191.297 Y77.773 E17.60538
G1 X191.297 Y78.262 E17.62995
G1 X176.738 Y63.703 E18.66513
G1 X176.249 Y63.703 E18.68970
G1 X191.297 Y78.751 E19.75962
G1 X191.297 Y79.239 E19.78419
G1 X175.761 Y63.703 E20.88885
G1 X175.272 Y63.703 E20.91342
G1 X191.297 Y79.728 E22.05283
G1 X191.297 Y80.217 E22.07740
G1 X174.783 Y63.703 E23.25155
G1 X174.295 Y63.703 E23.27612
G1 X191.297 Y80.705 E24.48501
G1 X191.297 Y81.194 E24.50958
G1 X173.806 Y63.703 E25.75322
G1 X173.317 Y63.703 E25.77779
G1 X191.297 Y81.683 E27.05618
G1 X191.297 Y82.171 E27.08074
G1 X172.829 Y63.703 E28.39387
G1 X172.340 Y63.703 E28.41844
G1 X191.297 Y82.660 E29.76632
G1 X191.297 Y83.148 E29.79088
G1 X171.852 Y63.703 E31.17350
G1 X171.363 Y63.703 E31.19807
G1 X191.297 Y83.637 E32.61543
G1 X191.297 Y84.126 E32.64000
G1 X170.874 Y63.703 E34.09210
G1 X170.386 Y63.703 E34.11667
G1 X191.297 Y84.614 E35.60352
G1 X191.297 Y85.103 E35.62809
G1 X169.897 Y63.703 E37.14968
G1 X169.408 Y63.703 E37.17425
G1 X191.297 Y85.592 E38.73059
G1 X191.297 Y86.080 E38.75516
G1 X168.920 Y63.703 E40.34624
G1 X168.431 Y63.703 E40.37081
G1 X191.297 Y86.569 E41.99664
G1 X191.297 Y87.058 E42.02120
G1 X167.942 Y63.703 E43.68177
G1 X167.454 Y63.703 E43.70634
G1 X191.297 Y87.546 E45.40166
G1 X191.297 Y88.035 E45.42622
G1 X166.965 Y63.703 E47.15628
G1 X166.477 Y63.703 E47.18085
G1 X191.297 Y88.523 E48.94565
G1 X191.297 Y89.012 E48.97022
G1 X165.988 Y63.703 E50.76977
G1 X165.499 Y63.703 E50.79434
G1 X191.297 Y89.501 E52.62863
G1 X191.297 Y89.989 E52.65319
G1 X165.011 Y63.703 E54.52223
G1 X164.522 Y63.703 E54.54680
G1 X191.297 Y90.478 E56.45058
G1 X191.297 Y90.967 E56.47514
G1 X164.033 Y63.703 E58.41367
G1 X163.545 Y63.703 E58.43824
G1 X191.297 Y91.455 E60.41150
G1 X191.297 Y91.944 E60.43607
G1 X163.056 Y63.703 E62.44408
G1 X162.567 Y63.703 E62.46865
G1 X191.297 Y92.433 E64.51141
G1 X191.297 Y92.921 E64.53597
G1 X162.079 Y63.703 E66.61347
G1 X161.590 Y63.703 E66.63804
G1 X191.297 Y93.410 E68.75028
G1 X191.297 Y93.899 E68.77485
G1 X161.101 Y63.703 E70.92184
G1 X160.613 Y63.703 E70.94641
G1 X191.297 Y94.387 E73.12814
G1 X191.297 Y94.876 E73.15271
G1 X160.124 Y63.703 E75.36918
G1 X159.636 Y63.703 E75.39375
G1 X191.297 Y95.364 E77.64497
G1 X191.297 Y95.853 E77.66954
G1 X159.147 Y63.703 E79.95550
G1 X158.658 Y63.703 E79.98007
G1 X191.297 Y96.342 E82.30078
G1 X191.297 Y96.830 E82.32535
G1 X158.170 Y63.703 E84.68080
G1 X157.681 Y63.703 E84.70537
G1 X191.297 Y97.319 E87.09556
G1 X191.297 Y97.808 E87.12013
G1 X157.192 Y63.703 E89.54507
G1 X156.704 Y63.703 E89.56964
G1 X191.297 Y98.296 E92.02932
G1 X191.297 Y98.785 E92.05389
G1 X156.215 Y63.703 E94.54832
G1 X155.726 Y63.703 E94.57289
G1 X191.297 Y99.274 E97.10206
G1 X191.297 Y99.762 E97.12663
G1 X155.238 Y63.703 E99.69055
G1 X154.749 Y63.703 E99.71511
G1 X191.297 Y100.251 E102.31378
G1 X191.297 Y100.739 E102.33834
G1 X154.260 Y63.703 E104.97175
G1 X153.772 Y63.703 E104.99632
G1 X191.297 Y101.228 E107.66447
G1 X191.297 Y101.717 E107.68903
G1 X153.283 Y63.703 E110.39193
G1 X152.795 Y63.703 E110.41649
G1 X191.297 Y102.205 E113.15413
G1 X191.297 Y102.694 E113.17870
G1 X152.306 Y63.703 E115.95108
G1 X151.817 Y63.703 E115.97565
G1 X191.297 Y103.183 E118.78277
G1 X191.297 Y103.671 E118.80734
G1 X151.329 Y63.703 E121.64921
G1 X150.840 Y63.703 E121.67378
G1 X191.297 Y104.160 E124.55039
G1 X191.297 Y104.649 E124.57496
G1 X150.351 Y63.703 E127.48632
G1 X149.863 Y63.703 E127.51089
G1 X191.297 Y105.137 E130.45699
G1 X191.297 Y105.626 E130.48156
G1 X149.374 Y63.703 E133.46240
G1 X148.885 Y63.703 E133.48697
G1 X191.297 Y106.115 E136.50256
G1 X191.297 Y106.603 E136.52713
G1 X148.397 Y63.703 E139.57746
G1 X147.908 Y63.703 E139.60203
G1 X191.297 Y107.092 E142.68711
G1 X191.297 Y107.580 E142.71168
G1 X147.420 Y63.703 E145.83150
G1 X146.931 Y63.703 E145.85607
G1 X191.297 Y108.069 E149.01063
G1 X191.297 Y108.558 E149.03520
G1 X146.442 Y63.703 E152.22451
G1 X145.954 Y63.703 E152.24908
G1 X191.297 Y109.046 E155.47313
G1 X191.297 Y109.535 E155.49770
G1 X145.465 Y63.703 E158.75650
G1 X144.976 Y63.703 E158.78107
G1 X191.297 Y110.024 E162.07461
G1 X191.297 Y110.512 E162.09918
G1 X144.488 Y63.703 E165.42747
G1 X143.999 Y63.703 E165.45203
G1 X191.297 Y111.001 E168.81506
G1 X191.297 Y111.490 E168.83963
G1 X143.510 Y63.703 E172.23741
G1 X143.022 Y63.703 E172.26197
G1 X191.297 Y111.978 E175.69449
G1 X191.297 Y112.467 E175.71906
G1 X142.533 Y63.703 E179.18632
G1 X142.044 Y63.703 E179.21089
G1 X191.297 Y112.956 E182.71290
G1 X191.297 Y113.444 E182.73747
G1 X141.556 Y63.703 E186.27422
G1 X141.067 Y63.703 E186.29879
G1 X191.297 Y113.933 E189.87028
G1 X191.297 Y114.421 E189.89485
G1 X140.579 Y63.703 E193.50109
G1 X140.090 Y63.703 E193.52566
G1 X191.297 Y114.910 E197.16664
G1 X191.297 Y115.399 E197.19121
G1 X139.601 Y63.703 E200.86694
G1 X139.113 Y63.703 E200.89150
G1 X191.297 Y115.887 E204.60198
G1 X191.297 Y116.376 E204.62654
G1 X138.624 Y63.703 E208.37176
G1 X138.135 Y63.703 E208.39633
G1 X191.297 Y116.865 E212.17629
G1 X191.297 Y117.353 E212.20086
G1 X137.647 Y63.703 E216.01556
G1 X137.158 Y63.703 E216.04013
G1 X191.297 Y117.842 E219.88958
G1 X191.297 Y118.331 E219.91414
G1 X136.669 Y63.703 E223.79834
G1 X136.181 Y63.703 E223.82290
G1 X191.297 Y118.819 E227.74184
G1 X191.297 Y119.308 E227.76641
G1 X135.692 Y63.703 E231.72009
G1 X135.204 Y63.703 E231.74466
G1 X191.297 Y119.796 E235.73308
G1 X191.297 Y120.285 E235.75765
G1 X134.715 Y63.703 E239.78082
G1 X134.226 Y63.703 E239.80539
G1 X191.297 Y120.774 E243.86330
G1 X191.297 Y121.262 E243.88787
G1 X133.738 Y63.703 E247.98052
G1 X133.249 Y63.703 E248.00509
G1 X191.297 Y121.751 E252.13249
G1 X191.297 Y122.240 E252.15706
G1 X132.760 Y63.703 E256.31920
G1 X132.272 Y63.703 E256.34377
G1 X191.297 Y122.728 E260.54066
G1 X191.297 Y123.217 E260.56523
G1 X131.783 Y63.703 E264.79686
G1 X131.294 Y63.703 E264.82143
G1 X191.297 Y123.706 E269.08781
G1 X191.297 Y124.194 E269.11238
G1 X130.806 Y63.703 E273.41350
G1 X130.317 Y63.703 E273.43807
G1 X191.297 Y124.683 E277.77393
G1 X191.297 Y125.172 E277.79850
G1 X129.828 Y63.703 E282.16911
G1 X129.340 Y63.703 E282.19368
G1 X191.297 Y125.660 E286.59903
G1 X191.297 Y126.149 E286.62360
G1 X128.851 Y63.703 E291.06370
G1 X128.363 Y63.703 E291.08826
G1 X191.297 Y126.637 E295.56310
G1 X191.297 Y127.126 E295.58767
G1 X127.874 Y63.703 E300.09726
G1 X127.385 Y63.703 E300.12183
G1 X191.297 Y127.615 E304.66616
G1 X191.297 Y128.103 E304.69072
G1 X126.897 Y63.703 E309.26980
G1 X126.408 Y63.703 E309.29437
G1 X191.297 Y128.592 E313.90818
G1 X191.297 Y129.081 E313.93275
G1 X125.919 Y63.703 E318.58131
G1 X125.431 Y63.703 E318.60588
G1 X191.297 Y129.569 E323.28919
G1 X191.297 Y130.058 E323.31376
G1 X124.942 Y63.703 E328.03181
G1 X124.453 Y63.703 E328.05638
G1 X191.297 Y130.547 E332.80917
G1 X191.297 Y131.035 E332.83374
G1 X123.965 Y63.703 E337.62128
G1 X123.476 Y63.703 E337.64584
G1 X191.297 Y131.524 E342.46813
G1 X191.297 Y132.012 E342.49269
G1 X122.988 Y63.703 E347.34972
G1 X122.499 Y63.703 E347.37429
G1 X191.297 Y132.501 E352.26606
G1 X191.297 Y132.990 E352.29063
G1 X122.010 Y63.703 E357.21714
G1 X121.522 Y63.703 E357.24171
G1 X191.297 Y133.478 E362.20297
G1 X191.297 Y133.967 E362.22754
G1 X121.033 Y63.703 E367.22354
G1 X120.544 Y63.703 E367.24811
G1 X191.297 Y134.456 E372.27886
G1 X191.297 Y134.944 E372.30342
G1 X120.056 Y63.703 E377.36892
G1 X119.567 Y63.703 E377.39348
G1 X191.297 Y135.433 E382.49372
G1 X191.297 Y135.922 E382.51829
G1 X119.078 Y63.703 E387.65327
G1 X118.590 Y63.703 E387.67783
G1 X191.183 Y136.297 E392.83948
G1 X190.694 Y136.297 E392.86405
G1 X118.101 Y63.703 E398.02570
G1 X117.612 Y63.703 E398.05027
G1 X190.206 Y136.297 E403.21191
G1 X189.717 Y136.297 E403.23648
G1 X117.124 Y63.703 E408.39813
G1 X116.635 Y63.703 E408.42270
G1 X189.229 Y136.297 E413.58434
G1 X188.740 Y136.297 E413.60891
G1 X116.147 Y63.703 E418.77056
G1 X115.658 Y63.703 E418.79513
G1 X188.251 Y136.297 E423.95678
G1 X187.763 Y136.297 E423.98134
G1 X115.169 Y63.703 E429.14299
G1 X114.681 Y63.703 E429.16756
G1 X187.274 Y136.297 E434.32921
G1 X186.785 Y136.297 E434.35377
G1 X114.192 Y63.703 E439.51542
G1 X113.703 Y63.703 E439.53999
G1 X186.297 Y136.297 E444.70164
G1 X185.808 Y136.297 E444.72621
G1 X113.215 Y63.703 E449.88785
G1 X112.726 Y63.703 E449.91242
G1 X185.319 Y136.297 E455.07407
G1 X184.831 Y136.297 E455.09864
G1 X112.237 Y63.703 E460.26028
G1 X111.749 Y63.703 E460.28485
G1 X184.342 Y136.297 E465.44650
G1 X183.853 Y136.297 E465.47107
G1 X111.260 Y63.703 E470.63272
G1 X110.771 Y63.703 E470.65728
G1 X183.365 Y136.297 E475.81893
G1 X182.876 Y136.297 E475.84350
G1 X110.283 Y63.703 E481.00515
G1 X109.794 Y63.703 E481.02971
G1 X182.388 Y136.297 E486.19136
G1 X181.899 Y136.297 E486.21593
G1 X109.306 Y63.703 E491.37758
G1 X108.817 Y63.703 E491.40215
G1 X181.410 Y136.297 E496.56379
G1 X180.922 Y136.297 E496.58836
G1 X108.703 Y64.078 E501.72334
G1 X108.703 Y64.567 E501.74791
G1 X180.433 Y136.297 E506.84815
G1 X179.944 Y136.297 E506.87272
G1 X108.703 Y65.056 E511.93821
G1 X108.703 Y65.544 E511.96278
G1 X179.456 Y136.297 E516.99353
G1 X178.967 Y136.297 E517.01810
G1 X108.703 Y66.033 E522.01410
G1 X108.703 Y66.522 E522.03867
G1 X178.478 Y136.297 E526.99993
G1 X177.990 Y136.297 E527.02450
G1 X108.703 Y67.010 E531.95102
G1 X108.703 Y67.499 E531.97558
G1 X177.501 Y136.297 E536.86736
G1 X177.013 Y136.297 E536.89192
G1 X108.703 Y67.987 E541.74895
G1 X108.703 Y68.476 E541.77352
G1 X176.524 Y136.297 E546.59581
G1 X176.035 Y136.297 E546.62037
G1 X108.703 Y68.965 E551.40791
G1 X108.703 Y69.453 E551.43248
G1 X175.547 Y136.297 E556.18528
G1 X175.058 Y136.297 E556.20985
G1 X108.703 Y69.942 E560.92790
G1 X108.703 Y70.431 E560.95247
G1 X174.569 Y136.297 E565.63578
G1 X174.081 Y136.297 E565.66034
G1 X108.703 Y70.919 E570.30891
G1 X108.703 Y71.408 E570.33348
G1 X173.592 Y136.297 E574.94730
G1 X173.103 Y136.297 E574.97186
G1 X108.703 Y71.897 E579.55094
G1 X108.703 Y72.385 E579.57551
G1 X172.615 Y136.297 E584.11984
G1 X172.126 Y136.297 E584.14441
G1 X108.703 Y72.874 E588.65400
G1 X108.703 Y73.363 E588.67856
G1 X171.637 Y136.297 E593.15341
