; generated by PrusaSlicer 2.3.3+win64 on 2021-10-15 at 03:19:01 UTC

; 

; external perimeters extrusion width = 0.45mm
; perimeters extrusion width = 0.45mm
; infill extrusion width = 0.45mm
; solid infill extrusion width = 0.45mm
; top infill extrusion width = 0.40mm
; first layer extrusion width = 0.42mm

M201 X9000 Y9000 Z500 E10000 ; sets maximum accelerations, mm/sec^2
M203 X500 Y500 Z12 E120 ; sets maximum feedrates, mm/sec
M204 P1500 R1500 T1500 ; sets acceleration (P, T) and retract acceleration (R), mm/sec^2
M205 X10.00 Y10.00 Z0.20 E2.50 ; sets the jerk limits, mm/sec
M205 S0 T0 ; sets the minimum extruding and travel feed rate, mm/sec
M107
M190 S105 ; set bed temperature and wait for it to be reached
M104 S225 ; set temperature
;TYPE:Custom
G28 ; home all axes
G1 Z5 F5000 ; lift nozzle
M109 S225 ; set temperature and wait for it to be reached
G21 ; set units to millimeters
G90 ; use absolute coordinates
M82 ; use absolute distances for extrusion
G92 E0
; Filament gcode
;LAYER_CHANGE
;Z:0.35
;HEIGHT:0.35
G1 Z0.350 F7200.000
G1 E-2.00000 F2400.000
G92 E0
G1 X102.316 Y59.106 F7200.000
G1 E2.00000 F2400.000
;TYPE:Skirt
;WIDTH:0.42
G1 F1800.000
G1 X103.284 Y57.962 E2.07520
G1 X104.229 Y57.214 E2.13569
G1 X105.292 Y56.660 E2.19588
G1 X106.601 Y56.253 E2.26469
G1 X107.869 Y56.103 E2.32874
G1 X192.082 Y56.096 E6.55503
G1 X193.275 Y56.211 E6.61522
G1 X194.432 Y56.550 E6.67571
G1 X195.636 Y57.137 E6.74292
G1 X196.669 Y57.933 E6.80839
G1 X197.539 Y58.889 E6.87327
G1 X198.185 Y59.951 E6.93563
G1 X198.681 Y61.257 E7.00577
G1 X198.893 Y62.564 E7.07217
G1 X198.896 Y137.162 E10.81597
G1 X198.736 Y138.451 E10.88115
G1 X198.300 Y139.813 E10.95292
G1 X197.688 Y140.916 E11.01621
G1 X196.866 Y141.881 E11.07982
G1 X195.803 Y142.747 E11.14864
G1 X194.729 Y143.334 E11.21007
G1 X193.448 Y143.738 E11.27749
G1 X192.145 Y143.897 E11.34338
G1 X107.988 Y143.898 E15.56689
G1 X106.588 Y143.745 E15.63755
G1 X105.232 Y143.318 E15.70888
G1 X104.106 Y142.684 E15.77373
G1 X102.962 Y141.716 E15.84893
G1 X102.217 Y140.777 E15.90912
G1 X101.662 Y139.714 E15.96930
G1 X101.254 Y138.405 E16.03810
G1 X101.103 Y137.150 E16.10153
G1 X101.102 Y62.975 E19.82406
G1 X101.256 Y61.582 E19.89442
G1 X101.682 Y60.232 E19.96544
G1 X102.286 Y59.158 E20.02727
G1 E18.02727 F2400.000
G92 E0
G1 X108.891 Y63.891 F7200.000
G1 E2.00000 F2400.000
;TYPE:Perimeter
G1 F1800.000
G1 X191.111 Y63.889 E6.12630
G1 X191.109 Y136.109 E9.75074
G1 X108.891 Y136.109 E13.87691
G1 X108.891 Y63.951 E17.49820
G1 X108.546 Y63.546 F7200.000
G1 F1800.000
G1 X191.456 Y63.544 E21.65912
G1 X191.454 Y136.454 E25.31818
G1 X108.546 Y136.454 E29.47896
G1 X108.546 Y63.606 E33.13487
G1 X108.201 Y63.201 F7200.000
G1 F1800.000
G1 X191.801 Y63.199 E37.33041
G1 X191.799 Y136.799 E41.02408
G1 X108.201 Y136.799 E45.21948
G1 X108.201 Y63.261 E48.91001
G1 X107.877 Y62.948 F7200.000
;TYPE:External perimeter
G1 F1800.000
G1 X107.924 Y62.889 E48.91379
G1 X108.042 Y62.857 E48.91993
G1 X192.003 Y62.854 E53.13359
G1 X192.068 Y62.881 E53.13712
G1 X192.119 Y62.932 E53.14077
G1 X192.146 Y62.997 E53.14430
G1 X192.143 Y136.958 E56.85610
G1 X192.111 Y137.076 E56.86223
G1 X192.052 Y137.123 E56.86601
G1 X191.961 Y137.143 E56.87069
G1 X108.039 Y137.143 E61.08239
G1 X107.948 Y137.123 E61.08707
G1 X107.889 Y137.076 E61.09085
G1 X107.857 Y136.958 E61.09698
G1 X107.864 Y63.007 E64.80831
G1 X107.952 Y62.942 F7200.000
G1 E62.80831 F2400.000
G92 E0
G1 X191.008 Y64.691 F7200.000
G1 E2.00000 F2400.000
;TYPE:Solid infill
;WIDTH:0.421022
G1 F1800.000
G1 X190.464 Y64.147 E2.03873
G1 X189.975 Y64.147 E2.06336
G1 X190.853 Y65.025 E2.12586
G1 X190.853 Y65.514 E2.15048
G1 X189.485 Y64.147 E2.24781
G1 X188.996 Y64.147 E2.27243
G1 X190.853 Y66.004 E2.40458
G1 X190.853 Y66.493 E2.42920
G1 X188.507 Y64.147 E2.59617
G1 X188.018 Y64.147 E2.62079
G1 X190.853 Y66.982 E2.82258
G1 X190.853 Y67.471 E2.84720
G1 X187.529 Y64.147 E3.08381
G1 X187.040 Y64.147 E3.10843
G1 X190.853 Y67.960 E3.37985
G1 X190.853 Y68.450 E3.40448
G1 X186.550 Y64.147 E3.71072
G1 X186.061 Y64.147 E3.73535
G1 X190.853 Y68.939 E4.07641
G1 X190.853 Y69.428 E4.10104
G1 X185.572 Y64.147 E4.47692
G1 X185.083 Y64.147 E4.50155
G1 X190.853 Y69.917 E4.91225
G1 X190.853 Y70.406 E4.93688
G1 X184.594 Y64.147 E5.38240
G1 X184.105 Y64.147 E5.40703
G1 X190.853 Y70.895 E5.88737
G1 X190.853 Y71.385 E5.91200
G1 X183.615 Y64.147 E6.42716
G1 X183.126 Y64.147 E6.45179
G1 X190.853 Y71.874 E7.00178
G1 X190.852 Y72.363 E7.02640
G1 X182.637 Y64.147 E7.61121
G1 X182.148 Y64.147 E7.63583
G1 X190.852 Y72.852 E8.25546
G1 X190.852 Y73.341 E8.28008
G1 X181.659 Y64.147 E8.93453
G1 X181.170 Y64.148 E8.95915
G1 X190.852 Y73.830 E9.64842
G1 X190.852 Y74.320 E9.67304
G1 X180.680 Y64.148 E10.39713
G1 X180.191 Y64.148 E10.42176
G1 X190.852 Y74.809 E11.18066
G1 X190.852 Y75.298 E11.20529
G1 X179.702 Y64.148 E11.99902
G1 X179.213 Y64.148 E12.02364
G1 X190.852 Y75.787 E12.85219
G1 X190.852 Y76.276 E12.87681
G1 X178.724 Y64.148 E13.74018
G1 X178.234 Y64.148 E13.76480
G1 X190.852 Y76.765 E14.66299
G1 X190.852 Y77.255 E14.68762
G1 X177.745 Y64.148 E15.62063
G1 X177.256 Y64.148 E15.64525
G1 X190.852 Y77.744 E16.61308
G1 X190.852 Y78.233 E16.63770
G1 X176.767 Y64.148 E17.64035
G1 X176.278 Y64.148 E17.66498
G1 X190.852 Y78.722 E18.70245
G1 X190.852 Y79.211 E18.72707
G1 X175.789 Y64.148 E19.79936
G1 X175.299 Y64.148 E19.82398
G1 X190.852 Y79.701 E20.93109
G1 X190.852 Y80.190 E20.95572
G1 X174.810 Y64.148 E22.09765
G1 X174.321 Y64.148 E22.12227
G1 X190.852 Y80.679 E23.29902
G1 X190.852 Y81.168 E23.32364
G1 X173.832 Y64.148 E24.53522
G1 X173.343 Y64.148 E24.55984
G1 X190.852 Y81.657 E25.80623
G1 X190.852 Y82.146 E25.83085
G1 X172.854 Y64.148 E27.11207
G1 X172.364 Y64.148 E27.13669
G1 X190.852 Y82.636 E28.45272
G1 X190.852 Y83.125 E28.47734
G1 X171.875 Y64.148 E29.82820
G1 X171.386 Y64.148 E29.85282
G1 X190.852 Y83.614 E31.23849
G1 X190.852 Y84.103 E31.26311
G1 X170.897 Y64.148 E32.68361
G1 X170.408 Y64.148 E32.70823
G1 X190.852 Y84.592 E34.16354
G1 X190.852 Y85.081 E34.18816
G1 X169.918 Y64.148 E35.67830
G1 X169.429 Y64.148 E35.70292
G1 X190.852 Y85.571 E37.22787
G1 X190.852 Y86.060 E37.25250
G1 X168.940 Y64.148 E38.81227
G1 X168.451 Y64.148 E38.83689
G1 X190.852 Y86.549 E40.43149
G1 X190.852 Y87.038 E40.45611
G1 X167.962 Y64.148 E42.08552
G1 X167.473 Y64.148 E42.11014
G1 X190.852 Y87.527 E43.77438
G1 X190.852 Y88.017 E43.79900
G1 X166.983 Y64.148 E45.49806
G1 X166.494 Y64.148 E45.52268
G1 X190.852 Y88.506 E47.25655
G1 X190.852 Y88.995 E47.28117
G1 X166.005 Y64.148 E49.04987
G1 X165.516 Y64.148 E49.07449
G1 X190.852 Y89.484 E50.87801
G1 X190.852 Y89.973 E50.90263
G1 X165.027 Y64.148 E52.74096
G1 X164.538 Y64.148 E52.76559
G1 X190.852 Y90.462 E54.63874
G1 X190.852 Y90.952 E54.66336
G1 X164.048 Y64.148 E56.57134
G1 X163.559 Y64.148 E56.59596
G1 X190.852 Y91.441 E58.53876
G1 X190.852 Y91.930 E58.56338
G1 X163.070 Y64.148 E60.54100
G1 X162.581 Y64.148 E60.56562
G1 X190.852 Y92.419 E62.57806
G1 X190.852 Y92.908 E62.60268
G1 X162.092 Y64.148 E64.64993
G1 X161.602 Y64.148 E64.67456
G1 X190.852 Y93.397 E66.75663
G1 X190.852 Y93.887 E66.78126
G1 X161.113 Y64.148 E68.89815
G1 X160.624 Y64.148 E68.92277
G1 X190.852 Y94.376 E71.07449
G1 X190.852 Y94.865 E71.09911
G1 X160.135 Y64.148 E73.28565
G1 X159.646 Y64.148 E73.31027
G1 X190.852 Y95.354 E75.53163
G1 X190.852 Y95.843 E75.55625
G1 X159.157 Y64.148 E77.81243
G1 X158.667 Y64.148 E77.83705
G1 X190.852 Y96.332 E80.12805
G1 X190.852 Y96.822 E80.15267
G1 X158.178 Y64.148 E82.47849
G1 X157.689 Y64.148 E82.50311
G1 X190.852 Y97.311 E84.86375
G1 X190.852 Y97.800 E84.88837
G1 X157.200 Y64.148 E87.28383
G1 X156.711 Y64.148 E87.30845
G1 X190.852 Y98.289 E89.73873
G1 X190.852 Y98.778 E89.76335
G1 X156.222 Y64.148 E92.22845
G1 X155.732 Y64.148 E92.25307
G1 X190.852 Y99.268 E94.75299
G1 X190.851 Y99.757 E94.77762
G1 X155.243 Y64.148 E97.31235
G1 X154.754 Y64.148 E97.33698
G1 X190.851 Y100.246 E99.90654
G1 X190.851 Y100.735 E99.93116
G1 X154.265 Y64.148 E102.53554
G1 X153.776 Y64.148 E102.56016
G1 X190.851 Y101.224 E105.19936
G1 X190.851 Y101.713 E105.22398
G1 X153.286 Y64.148 E107.89800
G1 X152.797 Y64.148 E107.92262
G1 X190.851 Y102.203 E110.63146
G1 X190.851 Y102.692 E110.65609
G1 X152.308 Y64.148 E113.39975
G1 X151.819 Y64.148 E113.42437
G1 X190.851 Y103.181 E116.20285
G1 X190.851 Y103.670 E116.22747
G1 X151.330 Y64.148 E119.04077
G1 X150.841 Y64.148 E119.06539
G1 X190.851 Y104.159 E121.91351
G1 X190.851 Y104.648 E121.93814
G1 X150.351 Y64.148 E124.82108
G1 X149.862 Y64.149 E124.84570
G1 X190.851 Y105.138 E127.76346
G1 X190.851 Y105.627 E127.78808
G1 X149.373 Y64.149 E130.74066
G1 X148.884 Y64.149 E130.76529
G1 X190.851 Y106.116 E133.75269
G1 X190.851 Y106.605 E133.77731
G1 X148.395 Y64.149 E136.79953
G1 X147.906 Y64.149 E136.82415
G1 X190.851 Y107.094 E139.88120
G1 X190.851 Y107.583 E139.90582
G1 X147.416 Y64.149 E142.99768
G1 X146.927 Y64.149 E143.02230
G1 X190.851 Y108.073 E146.14898
G1 X190.851 Y108.562 E146.17361
G1 X146.438 Y64.149 E149.33511
G1 X145.949 Y64.149 E149.35973
G1 X190.851 Y109.051 E152.55605
G1 X190.851 Y109.540 E152.58068
G1 X145.460 Y64.149 E155.81182
G1 X144.970 Y64.149 E155.83644
G1 X190.851 Y110.029 E159.10240
G1 X190.851 Y110.519 E159.12703
G1 X144.481 Y64.149 E162.42781
G1 X143.992 Y64.149 E162.45243
G1 X190.851 Y111.008 E165.78803
G1 X190.851 Y111.497 E165.81266
G1 X143.503 Y64.149 E169.18308
G1 X143.014 Y64.149 E169.20770
G1 X190.851 Y111.986 E172.61294
G1 X190.851 Y112.475 E172.63757
G1 X142.525 Y64.149 E176.07763
G1 X142.035 Y64.149 E176.10225
G1 X190.851 Y112.964 E179.57714
G1 X190.851 Y113.454 E179.60176
G1 X141.546 Y64.149 E183.11146
G1 X141.057 Y64.149 E183.13609
G1 X190.851 Y113.943 E186.68061
G1 X190.851 Y114.432 E186.70523
G1 X140.568 Y64.149 E190.28458
G1 X140.079 Y64.149 E190.30920
G1 X190.851 Y114.921 E193.92336
G1 X190.851 Y115.410 E193.94799
G1 X139.590 Y64.149 E197.59697
G1 X139.100 Y64.149 E197.62159
G1 X190.851 Y115.899 E201.30540
G1 X190.851 Y116.389 E201.33002
G1 X138.611 Y64.149 E205.04865
G1 X138.122 Y64.149 E205.07327
G1 X190.851 Y116.878 E208.82671
G1 X190.851 Y117.367 E208.85134
G1 X137.633 Y64.149 E212.63960
G1 X137.144 Y64.149 E212.66422
G1 X190.851 Y117.856 E216.48731
G1 X190.851 Y118.345 E216.51193
G1 X136.654 Y64.149 E220.36984
G1 X136.165 Y64.149 E220.39446
G1 X190.851 Y118.834 E224.28719
G1 X190.851 Y119.324 E224.31181
G1 X135.676 Y64.149 E228.23935
G1 X135.187 Y64.149 E228.26398
G1 X190.851 Y119.813 E232.22634
G1 X190.851 Y120.302 E232.25096
G1 X134.698 Y64.149 E236.24815
G1 X134.209 Y64.149 E236.27277
G1 X190.851 Y120.791 E240.30478
G1 X190.851 Y121.280 E240.32940
G1 X133.719 Y64.149 E244.39623
G1 X133.230 Y64.149 E244.42085
G1 X190.851 Y121.770 E248.52250
G1 X190.851 Y122.259 E248.54712
G1 X132.741 Y64.149 E252.68359
G1 X132.252 Y64.149 E252.70821
G1 X190.851 Y122.748 E256.87950
G1 X190.851 Y123.237 E256.90412
G1 X131.763 Y64.149 E261.11023
G1 X131.274 Y64.149 E261.13485
G1 X190.851 Y123.726 E265.37578
G1 X190.851 Y124.215 E265.40040
G1 X130.784 Y64.149 E269.67615
G1 X130.295 Y64.149 E269.70077
G1 X190.851 Y124.705 E274.01134
G1 X190.851 Y125.194 E274.03596
G1 X129.806 Y64.149 E278.38135
G1 X129.317 Y64.149 E278.40597
G1 X190.851 Y125.683 E282.78618
G1 X190.851 Y126.172 E282.81080
G1 X128.828 Y64.149 E287.22583
G1 X128.338 Y64.149 E287.25046
G1 X190.851 Y126.661 E291.70030
G1 X190.851 Y127.150 E291.72493
G1 X127.849 Y64.149 E296.20960
G1 X127.360 Y64.149 E296.23422
G1 X190.850 Y127.640 E300.75371
G1 X190.850 Y128.129 E300.77833
G1 X126.871 Y64.149 E305.33264
G1 X126.382 Y64.149 E305.35726
G1 X190.850 Y128.618 E309.94639
G1 X190.850 Y129.107 E309.97101
G1 X125.893 Y64.149 E314.59496
G1 X125.403 Y64.149 E314.61959
G1 X190.850 Y129.596 E319.27836
G1 X190.850 Y130.085 E319.30298
G1 X124.914 Y64.149 E323.99657
G1 X124.425 Y64.149 E324.02119
G1 X190.850 Y130.575 E328.74960
G1 X190.850 Y131.064 E328.77422
G1 X123.936 Y64.149 E333.53745
G1 X123.447 Y64.149 E333.56208
G1 X190.850 Y131.553 E338.36013
G1 X190.850 Y132.042 E338.38475
G1 X122.958 Y64.149 E343.21762
G1 X122.468 Y64.149 E343.24224
G1 X190.850 Y132.531 E348.10993
G1 X190.850 Y133.021 E348.13456
G1 X121.979 Y64.149 E353.03707
G1 X121.490 Y64.149 E353.06169
G1 X190.850 Y133.510 E357.99902
G1 X190.850 Y133.999 E358.02364
G1 X121.001 Y64.149 E362.99580
G1 X120.512 Y64.149 E363.02042
G1 X190.850 Y134.488 E368.02739
G1 X190.850 Y134.977 E368.05201
G1 X120.022 Y64.149 E373.09380
G1 X119.533 Y64.149 E373.11843
G1 X190.850 Y135.466 E378.19504
G1 X190.850 Y135.850 E378.21435
G1 X190.745 Y135.850 E378.21966
G1 X119.044 Y64.150 E383.32359
G1 X118.555 Y64.150 E383.34821
G1 X190.256 Y135.850 E388.45214
G1 X189.766 Y135.850 E388.47676
G1 X118.066 Y64.150 E393.58068
G1 X117.577 Y64.150 E393.60531
G1 X189.277 Y135.850 E398.70923
G1 X188.788 Y135.850 E398.73385
G1 X117.087 Y64.150 E403.83778
G1 X116.598 Y64.150 E403.86240
G1 X188.299 Y135.850 E408.96632
G1 X187.810 Y135.850 E408.99094
G1 X116.109 Y64.150 E414.09486
G1 X115.620 Y64.150 E414.11949
G1 X187.320 Y135.850 E419.22340
G1 X186.831 Y135.850 E419.24803
G1 X115.131 Y64.150 E424.35195
G1 X114.642 Y64.150 E424.37657
G1 X186.342 Y135.850 E429.48049
G1 X185.853 Y135.850 E429.50511
G1 X114.152 Y64.150 E434.60902
G1 X113.663 Y64.150 E434.63365
G1 X185.364 Y135.850 E439.73756
G1 X184.874 Y135.850 E439.76218
G1 X113.174 Y64.150 E444.86610
G1 X112.685 Y64.150 E444.89072
G1 X184.385 Y135.850 E449.99463
G1 X183.896 Y135.850 E450.01926
G1 X112.196 Y64.150 E455.12317
G1 X111.706 Y64.150 E455.14779
G1 X183.407 Y135.850 E460.25170
G1 X182.918 Y135.850 E460.27632
G1 X111.217 Y64.150 E465.38023
G1 X110.728 Y64.150 E465.40486
G1 X182.428 Y135.850 E470.50876
G1 X181.939 Y135.850 E470.53339
G1 X110.239 Y64.150 E475.63729
G1 X109.750 Y64.150 E475.66192
G1 X181.450 Y135.850 E480.76582
G1 X180.961 Y135.850 E480.79044
G1 X109.261 Y64.150 E485.89435
G1 X109.150 Y64.150 E485.89992
G1 X109.150 Y64.528 E485.91897
G1 X180.472 Y135.850 E490.99594
G1 X179.983 Y135.850 E491.02056
G1 X109.150 Y65.017 E496.06270
G1 X109.150 Y65.507 E496.08732
G1 X179.493 Y135.850 E501.09464
G1 X179.004 Y135.850 E501.11927
G1 X109.150 Y65.996 E506.09176
G1 X109.150 Y66.485 E506.11639
G1 X178.515 Y135.850 E511.05406
G1 X178.026 Y135.850 E511.07868
G1 X109.150 Y66.974 E515.98154
G1 X109.150 Y67.463 E516.00616
G1 X177.537 Y135.850 E520.87419
G1 X177.047 Y135.850 E520.89881
G1 X109.150 Y67.953 E525.73202
G1 X109.150 Y68.442 E525.75664
G1 X176.558 Y135.850 E530.55502
G1 X176.069 Y135.850 E530.57965
G1 X109.150 Y68.931 E535.34321
G1 X109.150 Y69.420 E535.36783
G1 X175.580 Y135.850 E540.09657
G1 X175.091 Y135.850 E540.12119
G1 X109.150 Y69.909 E544.81511
G1 X109.150 Y70.399 E544.83973
G1 X174.601 Y135.850 E549.49883
G1 X174.112 Y135.850 E549.52345
G1 X109.150 Y70.888 E554.14772
G1 X109.150 Y71.377 E554.17234
G1 X173.623 Y135.850 E558.76179
G1 X173.134 Y135.850 E558.78641
G1 X109.150 Y71.866 E563.34104
G1 X109.150 Y72.355 E563.36566
G1 X172.645 Y135.850 E567.88547
G1 X172.155 Y135.850 E567.91009
G1 X109.150 Y72.845 E572.39507
G1 X109.150 Y73.334 E572.41969
G1 X171.666 Y135.850 E576.86985
G1 X171.177 Y135.850 E576.89447
G1 X109.150 Y73.823 E581.30981
G1 X109.150 Y74.312 E581.33443
G1 X170.688 Y135.850 E585.71495
G1 X170.199 Y135.850 E585.73957
G1 X109.150 Y74.801 E590.08526
G1 X109.150 Y75.291 E590.10988
G1 X169.709 Y135.850 E594.42075
G1 X169.220 Y135.850 E594.44537
G1 X109.150 Y75.780 E598.72142
G1 X109.150 Y76.269 E598.74604
G1 X168.731 Y135.850 E602.98727
G1 X168.242 Y135.850 E603.01189
G1 X109.150 Y76.758 E607.21829
G1 X109.150 Y77.247 E607.24291
G1 X167.753 Y135.850 E611.41449
G1 X167.264 Y135.850 E611.43911
G1 X109.150 Y77.736 E615.57587
G1 X109.150 Y78.226 E615.60049
G1 X166.774 Y135.850 E619.70242
G1 X166.285 Y135.850 E619.72705
G1 X109.150 Y78.715 E623.79416
G1 X109.150 Y79.204 E623.81878
G1 X165.796 Y135.850 E627.85107
G1 X165.307 Y135.850 E627.87569
G1 X109.150 Y79.693 E631.87315
G1 X109.150 Y80.182 E631.89778
G1 X164.818 Y135.850 E635.86042
G1 X164.328 Y135.850 E635.88504
G1 X109.150 Y80.672 E639.81286
G1 X109.150 Y81.161 E639.83749
G1 X163.839 Y135.850 E643.73048
