; generated by PrusaSlicer 2.3.3+win64 on 2021-10-08 at 15:51:43 UTC

; 

; external perimeters extrusion width = 0.45mm
; perimeters extrusion width = 0.45mm
; infill extrusion width = 0.45mm
; solid infill extrusion width = 0.45mm
; top infill extrusion width = 0.40mm
; first layer extrusion width = 0.42mm

M201 X9000 Y9000 Z500 E10000 ; sets maximum accelerations, mm/sec^2
M203 X500 Y500 Z12 E120 ; sets maximum feedrates, mm/sec
M204 P1500 R1500 T1500 ; sets acceleration (P, T) and retract acceleration (R), mm/sec^2
M205 X10.00 Y10.00 Z0.20 E2.50 ; sets the jerk limits, mm/sec
M205 S0 T0 ; sets the minimum extruding and travel feed rate, mm/sec
M107
M190 S110 ; set bed temperature and wait for it to be reached
M104 S230 ; set temperature
;TYPE:Custom
G28 ; home all axes
G1 Z5 F5000 ; lift nozzle
M109 S230 ; set temperature and wait for it to be reached
G21 ; set units to millimeters
G90 ; use absolute coordinates
M82 ; use absolute distances for extrusion
G92 E0
; Filament gcode
;LAYER_CHANGE
;Z:0.35
;HEIGHT:0.35
G1 Z0.350 F7800.000
G1 E-2.00000 F2400.000
G92 E0
G1 X96.074 Y69.099 F7800.000
G1 E2.00000 F2400.000
;TYPE:Skirt
;WIDTH:0.42
G1 F1800.000
G1 X97.043 Y67.959 E2.07509
G1 X98.312 Y67.020 E2.15437
G1 X99.624 Y66.439 E2.22636
G1 X101.133 Y66.134 E2.30362
G1 X153.689 Y65.971 E4.94122
G1 X198.831 Y65.969 E7.20670
G1 X200.092 Y66.097 E7.27031
G1 X201.308 Y66.475 E7.33422
G1 X202.419 Y67.085 E7.39783
G1 X203.391 Y67.908 E7.46174
G1 X204.200 Y68.923 E7.52689
G1 X204.824 Y70.115 E7.59441
G1 X205.208 Y71.392 E7.66135
G1 X205.345 Y72.720 E7.72831
G1 X205.311 Y128.062 E10.50570
G1 X205.111 Y129.166 E10.56200
G1 X204.707 Y130.299 E10.62241
G1 X204.126 Y131.333 E10.68192
G1 X203.374 Y132.253 E10.74156
G1 X202.522 Y132.987 E10.79801
G1 X201.553 Y133.559 E10.85446
G1 X200.498 Y133.951 E10.91092
G1 X199.391 Y134.150 E10.96737
G1 X153.594 Y134.172 E13.26576
G1 X151.891 Y133.929 E13.35211
G1 X151.130 Y133.674 E13.39237
G1 X150.407 Y133.325 E13.43263
G1 X149.681 Y132.853 E13.47609
G1 X148.927 Y132.214 E13.52572
G1 X97.109 Y81.204 E17.17486
G1 X96.294 Y80.146 E17.24188
G1 X95.717 Y78.935 E17.30921
G1 X95.284 Y77.473 E17.38572
G1 X95.031 Y75.313 E17.49486
G1 X94.899 Y73.000 E17.61112
G1 X94.995 Y71.770 E17.67304
G1 X95.376 Y70.411 E17.74386
G1 X96.046 Y69.152 E17.81541
G1 E15.81541 F2400.000
G92 E0
G1 X102.382 Y73.554 F7800.000
G1 E2.00000 F2400.000
;TYPE:Perimeter
G1 F1800.000
G1 X145.618 Y73.565 E4.16983
G1 X145.554 Y74.652 E4.22447
G1 X145.437 Y75.724 E4.27857
G1 X102.563 Y75.724 E6.43025
G1 X102.446 Y74.652 E6.48436
G1 X102.385 Y73.614 E6.53656
G1 X102.016 Y73.209 F7800.000
G1 F1800.000
G1 X145.983 Y73.221 E8.74311
G1 X145.898 Y74.681 E8.81652
G1 X145.746 Y76.069 E8.88659
G1 X102.254 Y76.069 E11.06932
G1 X102.102 Y74.681 E11.13938
G1 X102.019 Y73.269 E11.21038
G1 X101.650 Y72.864 F7800.000
;TYPE:External perimeter
G1 F1800.000
G1 X146.349 Y72.876 E13.45363
G1 X146.241 Y74.710 E13.54583
G1 X146.079 Y76.205 E13.62132
G1 X146.007 Y76.414 E13.63239
G1 X101.993 Y76.414 E15.84128
G1 X101.921 Y76.205 E15.85235
G1 X101.759 Y74.710 E15.92783
G1 X101.654 Y72.924 E16.01762
G1 X102.002 Y73.054 F7800.000
G1 E14.01762 F2400.000
G92 E0
G1 X145.469 Y74.334 F7800.000
G1 E2.00000 F2400.000
;TYPE:Solid infill
;WIDTH:0.423785
G1 F1800.000
G1 X144.959 Y73.824 E2.03660
G1 X144.466 Y73.824 E2.06162
G1 X145.294 Y74.652 E2.12104
G1 X145.245 Y75.096 E2.14373
G1 X143.972 Y73.824 E2.23507
G1 X143.479 Y73.823 E2.26009
G1 X145.121 Y75.465 E2.37790
G1 X144.628 Y75.465 E2.40292
G1 X142.986 Y73.823 E2.52073
G1 X142.493 Y73.823 E2.54576
G1 X144.135 Y75.465 E2.66358
G1 X143.642 Y75.465 E2.68860
G1 X141.999 Y73.823 E2.80644
G1 X141.506 Y73.823 E2.83146
G1 X143.149 Y75.465 E2.94931
G1 X142.655 Y75.465 E2.97433
G1 X141.013 Y73.823 E3.09218
G1 X140.520 Y73.823 E3.11721
G1 X142.162 Y75.465 E3.23507
G1 X141.669 Y75.465 E3.26009
G1 X140.026 Y73.823 E3.37796
G1 X139.533 Y73.822 E3.40299
G1 X141.176 Y75.465 E3.52087
G1 X140.683 Y75.465 E3.54589
G1 X139.040 Y73.822 E3.66378
G1 X138.547 Y73.822 E3.68881
G1 X140.190 Y75.465 E3.80671
G1 X139.697 Y75.465 E3.83173
G1 X138.054 Y73.822 E3.94964
G1 X137.560 Y73.822 E3.97466
G1 X139.204 Y75.465 E4.09258
G1 X138.711 Y75.465 E4.11760
G1 X137.067 Y73.822 E4.23553
G1 X136.574 Y73.822 E4.26056
G1 X138.218 Y75.465 E4.37850
G1 X137.724 Y75.465 E4.40352
G1 X136.081 Y73.821 E4.52147
G1 X135.587 Y73.821 E4.54649
G1 X137.231 Y75.465 E4.66445
G1 X136.738 Y75.465 E4.68947
G1 X135.094 Y73.821 E4.80744
G1 X134.601 Y73.821 E4.83246
G1 X136.245 Y75.465 E4.95044
G1 X135.752 Y75.465 E4.97546
G1 X134.108 Y73.821 E5.09345
G1 X133.614 Y73.821 E5.11847
G1 X135.259 Y75.465 E5.23647
G1 X134.766 Y75.465 E5.26149
G1 X133.121 Y73.821 E5.37949
G1 X132.628 Y73.821 E5.40452
G1 X134.273 Y75.465 E5.52253
G1 X133.780 Y75.465 E5.54755
G1 X132.135 Y73.820 E5.66558
G1 X131.641 Y73.820 E5.69060
G1 X133.287 Y75.465 E5.80864
G1 X132.793 Y75.465 E5.83365
G1 X131.148 Y73.820 E5.95170
G1 X130.655 Y73.820 E5.97672
G1 X132.300 Y75.465 E6.09478
G1 X131.807 Y75.465 E6.11980
G1 X130.162 Y73.820 E6.23786
G1 X129.669 Y73.820 E6.26288
G1 X131.314 Y75.465 E6.38096
G1 X130.821 Y75.465 E6.40597
G1 X129.175 Y73.820 E6.52406
G1 X128.682 Y73.819 E6.54908
G1 X130.328 Y75.465 E6.66717
G1 X129.835 Y75.465 E6.69219
G1 X128.189 Y73.819 E6.81029
G1 X127.696 Y73.819 E6.83532
G1 X129.342 Y75.465 E6.95343
G1 X128.849 Y75.465 E6.97845
G1 X127.202 Y73.819 E7.09657
G1 X126.709 Y73.819 E7.12159
G1 X128.356 Y75.465 E7.23972
G1 X127.862 Y75.465 E7.26474
G1 X126.216 Y73.819 E7.38288
G1 X125.723 Y73.819 E7.40790
G1 X127.369 Y75.465 E7.52605
G1 X126.876 Y75.465 E7.55107
G1 X125.229 Y73.819 E7.66923
G1 X124.736 Y73.818 E7.69425
G1 X126.383 Y75.465 E7.81242
G1 X125.890 Y75.465 E7.83744
G1 X124.243 Y73.818 E7.95562
G1 X123.750 Y73.818 E7.98064
G1 X125.397 Y75.465 E8.09883
G1 X124.904 Y75.465 E8.12385
G1 X123.257 Y73.818 E8.24204
G1 X122.763 Y73.818 E8.26707
G1 X124.411 Y75.465 E8.38527
G1 X123.918 Y75.465 E8.41029
G1 X122.270 Y73.818 E8.52851
G1 X121.777 Y73.818 E8.55353
G1 X123.425 Y75.465 E8.67175
G1 X122.931 Y75.465 E8.69677
G1 X121.284 Y73.817 E8.81501
G1 X120.790 Y73.817 E8.84003
G1 X122.438 Y75.465 E8.95827
G1 X121.945 Y75.465 E8.98329
G1 X120.297 Y73.817 E9.10155
G1 X119.804 Y73.817 E9.12657
G1 X121.452 Y75.465 E9.24483
G1 X120.959 Y75.465 E9.26985
G1 X119.311 Y73.817 E9.38812
G1 X118.817 Y73.817 E9.41315
G1 X120.466 Y75.465 E9.53143
G1 X119.973 Y75.465 E9.55645
G1 X118.324 Y73.817 E9.67474
G1 X117.831 Y73.817 E9.69976
G1 X119.480 Y75.465 E9.81806
G1 X118.987 Y75.465 E9.84308
G1 X117.338 Y73.816 E9.96139
G1 X116.845 Y73.816 E9.98642
G1 X118.494 Y75.465 E10.10474
G1 X118.000 Y75.465 E10.12975
G1 X116.351 Y73.816 E10.24808
G1 X115.858 Y73.816 E10.27311
G1 X117.507 Y75.465 E10.39145
G1 X117.014 Y75.465 E10.41646
G1 X115.365 Y73.816 E10.53481
G1 X114.872 Y73.816 E10.55984
G1 X116.521 Y75.465 E10.67819
G1 X116.028 Y75.465 E10.70321
G1 X114.378 Y73.816 E10.82158
G1 X113.885 Y73.816 E10.84660
G1 X115.535 Y75.465 E10.96498
G1 X115.042 Y75.465 E10.99000
G1 X113.392 Y73.815 E11.10838
G1 X112.899 Y73.815 E11.13341
G1 X114.549 Y75.465 E11.25180
G1 X114.056 Y75.465 E11.27682
G1 X112.405 Y73.815 E11.39523
G1 X111.912 Y73.815 E11.42025
G1 X113.563 Y75.465 E11.53866
G1 X113.069 Y75.465 E11.56368
G1 X111.419 Y73.815 E11.68211
G1 X110.926 Y73.815 E11.70713
G1 X112.576 Y75.465 E11.82556
G1 X112.083 Y75.465 E11.85058
G1 X110.433 Y73.815 E11.96902
G1 X109.939 Y73.814 E11.99405
G1 X111.590 Y75.465 E12.11250
G1 X111.097 Y75.465 E12.13752
G1 X109.446 Y73.814 E12.25598
G1 X108.953 Y73.814 E12.28101
G1 X110.604 Y75.465 E12.39948
G1 X110.111 Y75.465 E12.42450
G1 X108.460 Y73.814 E12.54298
G1 X107.966 Y73.814 E12.56800
G1 X109.618 Y75.465 E12.68649
G1 X109.125 Y75.465 E12.71151
G1 X107.473 Y73.814 E12.83001
G1 X106.980 Y73.814 E12.85503
G1 X108.632 Y75.465 E12.97354
G1 X108.138 Y75.465 E12.99856
G1 X106.487 Y73.814 E13.11708
G1 X105.993 Y73.813 E13.14210
G1 X107.645 Y75.465 E13.26063
G1 X107.152 Y75.465 E13.28565
G1 X105.500 Y73.813 E13.40419
G1 X105.007 Y73.813 E13.42921
G1 X106.659 Y75.465 E13.54776
G1 X106.166 Y75.465 E13.57278
G1 X104.514 Y73.813 E13.69133
G1 X104.021 Y73.813 E13.71636
G1 X105.673 Y75.465 E13.83492
G1 X105.180 Y75.465 E13.85994
G1 X103.527 Y73.813 E13.97852
G1 X103.034 Y73.813 E14.00354
G1 X104.687 Y75.465 E14.12213
G1 X104.194 Y75.465 E14.14714
G1 X102.663 Y73.935 E14.25696
G1 X102.694 Y74.459 E14.28358
G1 X103.701 Y75.465 E14.35580
G1 X103.207 Y75.465 E14.38082
G1 X102.569 Y74.827 E14.42660
G1 E12.42660 F2400.000
G92 E0
G1 X154.344 Y73.416 F7800.000
G1 E2.00000 F2400.000
;TYPE:Perimeter
;WIDTH:0.42
G1 F1800.000
G1 X197.900 Y73.413 E4.18591
G1 X197.900 Y126.731 E6.86168
G1 X154.344 Y126.728 E9.04759
G1 X154.344 Y73.476 E11.72010
G1 X153.999 Y73.071 F7800.000
G1 F1800.000
G1 X198.245 Y73.069 E13.94063
G1 X198.245 Y127.075 E16.65102
G1 X153.999 Y127.073 E18.87155
G1 X153.999 Y73.131 E21.57868
G1 X153.654 Y72.726 F7800.000
;TYPE:External perimeter
G1 F1800.000
G1 X198.590 Y72.724 E23.83382
G1 X198.590 Y127.420 E26.57883
G1 X153.654 Y127.418 E28.83398
G1 X153.654 Y72.786 E31.57572
G1 X154.037 Y72.842 F7800.000
G1 E29.57572 F2400.000
G92 E0
G1 X197.096 Y73.517 F7800.000
G1 E2.00000 F2400.000
;TYPE:Solid infill
;WIDTH:0.421579
G1 F1800.000
G1 X197.642 Y74.062 E2.03888
G1 X197.642 Y74.552 E2.06358
G1 X196.761 Y73.672 E2.12633
G1 X196.272 Y73.672 E2.15103
G1 X197.642 Y75.042 E2.24871
G1 X197.642 Y75.532 E2.27342
G1 X195.782 Y73.672 E2.40603
G1 X195.292 Y73.672 E2.43073
G1 X197.642 Y76.022 E2.59828
G1 X197.642 Y76.512 E2.62298
G1 X194.802 Y73.672 E2.82546
G1 X194.312 Y73.672 E2.85016
G1 X197.642 Y77.002 E3.08757
G1 X197.642 Y77.492 E3.11227
G1 X193.822 Y73.672 E3.38462
G1 X193.332 Y73.672 E3.40932
G1 X197.642 Y77.982 E3.71660
G1 X197.642 Y78.472 E3.74130
G1 X192.842 Y73.672 E4.08351
G1 X192.352 Y73.672 E4.10821
G1 X197.642 Y78.962 E4.48536
G1 X197.642 Y79.452 E4.51006
G1 X191.862 Y73.672 E4.92214
G1 X191.372 Y73.672 E4.94684
G1 X197.642 Y79.942 E5.39385
G1 X197.642 Y80.432 E5.41855
G1 X190.882 Y73.672 E5.90049
G1 X190.392 Y73.673 E5.92519
G1 X197.642 Y80.922 E6.44207
G1 X197.642 Y81.412 E6.46677
G1 X189.902 Y73.673 E7.01858
G1 X189.412 Y73.673 E7.04328
G1 X197.642 Y81.902 E7.63002
G1 X197.642 Y82.392 E7.65472
G1 X188.922 Y73.673 E8.27639
G1 X188.432 Y73.673 E8.30109
G1 X197.642 Y82.882 E8.95770
G1 X197.642 Y83.372 E8.98240
G1 X187.942 Y73.673 E9.67394
G1 X187.452 Y73.673 E9.69864
G1 X197.642 Y83.862 E10.42512
G1 X197.642 Y84.352 E10.44982
G1 X186.962 Y73.673 E11.21122
G1 X186.472 Y73.673 E11.23592
G1 X197.642 Y84.842 E12.03226
G1 X197.642 Y85.332 E12.05696
G1 X185.983 Y73.673 E12.88823
G1 X185.493 Y73.673 E12.91294
G1 X197.642 Y85.822 E13.77914
G1 X197.642 Y86.312 E13.80384
G1 X185.003 Y73.673 E14.70498
G1 X184.513 Y73.673 E14.72968
G1 X197.642 Y86.802 E15.66575
G1 X197.642 Y87.292 E15.69045
G1 X184.023 Y73.673 E16.66145
G1 X183.533 Y73.673 E16.68615
G1 X197.642 Y87.782 E17.69209
G1 X197.642 Y88.272 E17.71679
G1 X183.043 Y73.673 E18.75766
G1 X182.553 Y73.673 E18.78236
G1 X197.642 Y88.762 E19.85816
G1 X197.642 Y89.252 E19.88286
G1 X182.063 Y73.673 E20.99360
G1 X181.573 Y73.673 E21.01830
G1 X197.642 Y89.742 E22.16396
G1 X197.642 Y90.232 E22.18866
G1 X181.083 Y73.673 E23.36926
G1 X180.593 Y73.673 E23.39396
G1 X197.642 Y90.722 E24.60950
G1 X197.642 Y91.212 E24.63420
G1 X180.103 Y73.673 E25.88466
G1 X179.613 Y73.673 E25.90936
G1 X197.642 Y91.702 E27.19476
G1 X197.642 Y92.191 E27.21946
G1 X179.123 Y73.673 E28.53979
G1 X178.633 Y73.673 E28.56450
G1 X197.642 Y92.681 E29.91976
G1 X197.642 Y93.171 E29.94446
G1 X178.143 Y73.673 E31.33466
G1 X177.653 Y73.673 E31.35936
G1 X197.642 Y93.661 E32.78449
G1 X197.642 Y94.151 E32.80919
G1 X177.163 Y73.673 E34.26925
G1 X176.673 Y73.673 E34.29395
G1 X197.642 Y94.641 E35.78895
G1 X197.642 Y95.131 E35.81365
G1 X176.184 Y73.673 E37.34358
G1 X175.694 Y73.673 E37.36828
G1 X197.642 Y95.621 E38.93314
G1 X197.642 Y96.111 E38.95784
G1 X175.204 Y73.673 E40.55763
G1 X174.714 Y73.673 E40.58233
G1 X197.642 Y96.601 E42.21706
G1 X197.642 Y97.091 E42.24176
G1 X174.224 Y73.673 E43.91142
G1 X173.734 Y73.673 E43.93612
G1 X197.642 Y97.581 E45.64071
G1 X197.642 Y98.071 E45.66542
G1 X173.244 Y73.673 E47.40494
G1 X172.754 Y73.673 E47.42964
G1 X197.642 Y98.561 E49.20410
G1 X197.642 Y99.051 E49.22880
G1 X172.264 Y73.674 E51.03819
G1 X171.774 Y73.674 E51.06289
G1 X197.642 Y99.541 E52.90721
G1 X197.642 Y100.031 E52.93192
G1 X171.284 Y73.674 E54.81117
G1 X170.794 Y73.674 E54.83587
G1 X197.642 Y100.521 E56.75006
G1 X197.642 Y101.011 E56.77476
G1 X170.304 Y73.674 E58.72389
G1 X169.814 Y73.674 E58.74859
G1 X197.642 Y101.501 E60.73264
G1 X197.642 Y101.991 E60.75734
G1 X169.324 Y73.674 E62.77633
G1 X168.834 Y73.674 E62.80103
G1 X197.642 Y102.481 E64.85495
G1 X197.642 Y102.971 E64.87965
G1 X168.344 Y73.674 E66.96851
G1 X167.854 Y73.674 E66.99321
G1 X197.642 Y103.461 E69.11699
G1 X197.642 Y103.951 E69.14170
G1 X167.364 Y73.674 E71.30041
G1 X166.874 Y73.674 E71.32511
G1 X197.642 Y104.441 E73.51877
G1 X197.642 Y104.931 E73.54347
G1 X166.384 Y73.674 E75.77205
G1 X165.895 Y73.674 E75.79675
G1 X197.642 Y105.421 E78.06027
G1 X197.642 Y105.911 E78.08497
G1 X165.405 Y73.674 E80.38342
G1 X164.915 Y73.674 E80.40812
G1 X197.642 Y106.401 E82.74151
G1 X197.642 Y106.891 E82.76621
G1 X164.425 Y73.674 E85.13452
G1 X163.935 Y73.674 E85.15923
G1 X197.642 Y107.381 E87.56247
G1 X197.642 Y107.871 E87.58718
G1 X163.445 Y73.674 E90.02536
G1 X162.955 Y73.674 E90.05006
G1 X197.642 Y108.361 E92.52317
G1 X197.642 Y108.851 E92.54787
G1 X162.465 Y73.674 E95.05592
G1 X161.975 Y73.674 E95.08062
G1 X197.642 Y109.341 E97.62360
G1 X197.642 Y109.831 E97.64830
G1 X161.485 Y73.674 E100.22622
G1 X160.995 Y73.674 E100.25092
G1 X197.642 Y110.321 E102.86376
G1 X197.642 Y110.811 E102.88847
G1 X160.505 Y73.674 E105.53624
G1 X160.015 Y73.674 E105.56094
G1 X197.642 Y111.301 E108.24365
G1 X197.642 Y111.791 E108.26836
G1 X159.525 Y73.674 E110.98600
G1 X159.035 Y73.674 E111.01070
G1 X197.642 Y112.281 E113.76328
G1 X197.642 Y112.771 E113.78798
G1 X158.545 Y73.674 E116.57549
G1 X158.055 Y73.674 E116.60019
G1 X197.642 Y113.261 E119.42263
G1 X197.642 Y113.751 E119.44734
G1 X157.565 Y73.674 E122.30471
G1 X157.075 Y73.674 E122.32941
G1 X197.642 Y114.241 E125.22172
G1 X197.642 Y114.731 E125.24642
G1 X156.585 Y73.674 E128.17366
G1 X156.095 Y73.674 E128.19837
G1 X197.642 Y115.221 E131.16054
G1 X197.642 Y115.711 E131.18524
G1 X155.606 Y73.674 E134.18235
G1 X155.116 Y73.674 E134.20705
G1 X197.642 Y116.201 E137.23909
G1 X197.642 Y116.690 E137.26379
G1 X154.626 Y73.675 E140.33076
G1 X154.603 Y73.675 E140.33192
G1 X154.603 Y74.141 E140.35546
G1 X197.642 Y117.180 E143.42408
G1 X197.642 Y117.670 E143.44878
G1 X154.603 Y74.631 E146.51739
G1 X154.603 Y75.121 E146.54210
G1 X197.642 Y118.160 E149.61071
G1 X197.642 Y118.650 E149.63541
G1 X154.603 Y75.611 E152.70403
G1 X154.603 Y76.101 E152.72873
G1 X197.642 Y119.140 E155.79734
G1 X197.642 Y119.630 E155.82204
G1 X154.603 Y76.591 E158.89066
G1 X154.603 Y77.081 E158.91536
G1 X197.642 Y120.120 E161.98397
G1 X197.642 Y120.610 E162.00868
G1 X154.603 Y77.571 E165.07729
G1 X154.603 Y78.061 E165.10199
G1 X197.642 Y121.100 E168.17061
G1 X197.642 Y121.590 E168.19531
G1 X154.603 Y78.551 E171.26392
G1 X154.603 Y79.041 E171.28862
G1 X197.642 Y122.080 E174.35724
G1 X197.642 Y122.570 E174.38194
G1 X154.603 Y79.531 E177.45055
G1 X154.603 Y80.021 E177.47526
G1 X197.642 Y123.060 E180.54387
G1 X197.642 Y123.550 E180.56857
G1 X154.603 Y80.511 E183.63719
G1 X154.603 Y81.001 E183.66189
G1 X197.642 Y124.040 E186.73050
G1 X197.642 Y124.530 E186.75520
G1 X154.603 Y81.491 E189.82382
G1 X154.603 Y81.981 E189.84852
G1 X197.642 Y125.020 E192.91713
G1 X197.642 Y125.510 E192.94184
G1 X154.603 Y82.471 E196.01045
G1 X154.603 Y82.961 E196.03515
G1 X197.642 Y126.000 E199.10377
G1 X197.642 Y126.472 E199.12755
G1 X197.623 Y126.472 E199.12847
G1 X154.603 Y83.451 E202.19578
G1 X154.603 Y83.941 E202.22049
G1 X197.133 Y126.472 E205.25287
G1 X196.643 Y126.472 E205.27757
G1 X154.603 Y84.431 E208.27501
G1 X154.603 Y84.921 E208.29972
